X: 43594
T: Young Tim Murphy
R: jig
M: 6/8
K: Dmajor
FG|:AFD DFA|Bcd B2A|Bcd AGF|GFG EFG|
AFD DFA|Bcd B2A|Bcd F2E|FDD D3:|
|:f3 dBA|Bdd d2e|fef def|gfg e2a|
fed B2d|A2d F2A|Bdd F2E|FDD D3:|

